humanity-icon-theme/Humanity/actions/16/system-lock-screen.svg

<?xml version="1.0" encoding="UTF-8" standalone="no"?>
<!-- Created with Inkscape (http://www.inkscape.org/) -->

<svg
   xmlns:svg="http://www.w3.org/2000/svg"
   xmlns="http://www.w3.org/2000/svg"
   xmlns:xlink="http://www.w3.org/1999/xlink"
   version="1.1"
   width="16"
   height="16"
   id="svg7324">
  <defs
     id="defs7326">
    <linearGradient
       id="linearGradient3269">
      <stop
         id="stop3271"
         style="stop-color:#787878;stop-opacity:1"
         offset="0" />
      <stop
         id="stop3273"
         style="stop-color:#bebebe;stop-opacity:1"
         offset="0.34446934" />
      <stop
         id="stop3275"
         style="stop-color:#c8c8c8;stop-opacity:1"
         offset="0.3731544" />
      <stop
         id="stop3277"
         style="stop-color:#e6e6e6;stop-opacity:1"
         offset="0.48990577" />
      <stop
         id="stop3279"
         style="stop-color:#8c8c8c;stop-opacity:1"
         offset="1" />
    </linearGradient>
    <linearGradient
       id="linearGradient3257">
      <stop
         id="stop3259"
         style="stop-color:#282828;stop-opacity:1"
         offset="0" />
      <stop
         id="stop3261"
         style="stop-color:#787878;stop-opacity:1"
         offset="0.34846506" />
      <stop
         id="stop3263"
         style="stop-color:#828282;stop-opacity:1"
         offset="0.36563665" />
      <stop
         id="stop3265"
         style="stop-color:#aaaaaa;stop-opacity:1"
         offset="0.49352548" />
      <stop
         id="stop3267"
         style="stop-color:#464646;stop-opacity:1"
         offset="1" />
    </linearGradient>
    <linearGradient
       id="linearGradient6560">
      <stop
         id="stop6562"
         style="stop-color:#5a5a5a;stop-opacity:1"
         offset="0" />
      <stop
         id="stop6564"
         style="stop-color:#323232;stop-opacity:1"
         offset="1" />
    </linearGradient>
    <linearGradient
       id="linearGradient6568">
      <stop
         id="stop6570"
         style="stop-color:#0a0a0a;stop-opacity:1"
         offset="0" />
      <stop
         id="stop6572"
         style="stop-color:#1e1e1e;stop-opacity:1"
         offset="1" />
    </linearGradient>
    <linearGradient
       id="linearGradient6544">
      <stop
         id="stop6546"
         style="stop-color:#f0f0f0;stop-opacity:1"
         offset="0" />
      <stop
         id="stop6548"
         style="stop-color:#d2d2d2;stop-opacity:1"
         offset="1" />
    </linearGradient>
    <radialGradient
       cx="12.244348"
       cy="4.8630676"
       r="20.999998"
       fx="12.244348"
       fy="4.8630676"
       id="radialGradient2926"
       xlink:href="#linearGradient6560"
       gradientUnits="userSpaceOnUse"
       gradientTransform="matrix(0.53971889,0.00713967,-0.0050252,0.39910688,-0.67163482,-0.286021)" />
    <linearGradient
       x1="24.875"
       y1="29"
       x2="24.999996"
       y2="3.0000005"
       id="linearGradient2928"
       xlink:href="#linearGradient6568"
       gradientUnits="userSpaceOnUse"
       gradientTransform="matrix(0.39024369,0,0,0.39999956,1.1341517,-1.899995)" />
    <linearGradient
       x1="20.147005"
       y1="-0.00049710274"
       x2="20.103531"
       y2="31.98299"
       id="linearGradient2931"
       xlink:href="#linearGradient6544"
       gradientUnits="userSpaceOnUse"
       gradientTransform="matrix(0.42622476,0,0,0.45208623,0.27048834,-2.732976)" />
    <linearGradient
       x1="321.57819"
       y1="86.050087"
       x2="321.57819"
       y2="96.245491"
       id="linearGradient3028"
       xlink:href="#linearGradient3269"
       gradientUnits="userSpaceOnUse"
       gradientTransform="matrix(0.41034562,0,0,0.51289447,-121.95962,-32.967797)" />
    <linearGradient
       x1="22.451862"
       y1="30.049623"
       x2="22.451862"
       y2="40.185558"
       id="linearGradient3030"
       xlink:href="#linearGradient3257"
       gradientUnits="userSpaceOnUse"
       gradientTransform="matrix(0.41182453,0,0,0.51282072,-0.51998706,-4.2432519)" />
  </defs>
  <path
     d="m 7.4361624,9.3459944 c 0,0 -1.5003636,3.5900056 -1.5003636,3.5900056 -0.00907,0.924221 -1.1517386,1.538936 -1.1517386,1.538936 -0.3083168,0.04535 -0.2613636,0.228754 -0.2613636,0.512898 0,0.284143 0.00729,0.512892 0.2613636,0.512892 l 6.6187388,1.37e-4 c 0.254075,0 0.162,-0.228857 0.162,-0.513 0,-0.284144 0.146317,-0.467646 -0.162,-0.513 0,0 -1.393931,-0.614389 -1.4030002,-1.53861 0,0 0.5000002,-3.5902586 0.5000002,-3.5902586 l -3.0636366,0 z"
     id="path4675"
     style="fill:url(#linearGradient3028);fill-opacity:1;stroke:url(#linearGradient3030);stroke-width:0.99827468;stroke-linecap:round;stroke-linejoin:round;stroke-miterlimit:4;stroke-opacity:1;stroke-dasharray:none;stroke-dashoffset:0.50000001;display:inline;enable-background:new" />
  <rect
     width="14.926929"
     height="12.019334"
     rx="0.5"
     ry="0.5"
     x="0.53171813"
     y="0.52201927"
     id="rect2722"
     style="fill:url(#linearGradient2931);fill-opacity:1;stroke:#969696;stroke-width:1.00003397;stroke-linecap:round;stroke-linejoin:round;stroke-miterlimit:4;stroke-opacity:1;stroke-dasharray:none;stroke-dashoffset:0.50000001" />
  <rect
     width="10.8976"
     height="7.9538894"
     x="2.485409"
     y="2.5303116"
     id="rect2716"
     style="fill:url(#radialGradient2926);fill-opacity:1;fill-rule:evenodd;stroke:url(#linearGradient2928);stroke-width:1.00001669;stroke-linecap:butt;stroke-linejoin:miter;stroke-miterlimit:4;stroke-opacity:1;stroke-dasharray:none;display:inline;enable-background:new" />
  <path
     d="M 7.8125024,3.0010353 C 6.5271066,3.0395757 6,3.6310982 6,4.8511604 L 6,6 5.3857145,6 C 5.1734577,6 5.0000007,6.2467823 5.0000007,6.422 l 0,3.2628687 c 0,0.1752179 0.173457,0.3151323 0.3857138,0.3151313 l 5.2339265,0 C 10.831901,10 11,9.8600866 11,9.6848687 L 11,6.422 C 11,6.2467823 10.831901,6 10.619641,6 L 10,6 10.0054,4.8714919 c 0,-1.2951236 -0.600008,-1.8544718 -1.9999991,-1.8704566 -0.065271,-7.498e-4 -0.1296405,-0.0019 -0.1928565,0 l -4.2e-5,0 z m 0.1285704,0.8183238 c 0.023636,-5.094e-4 0.050588,0.00117 0.075,0 C 9.2686391,3.7592087 8.977063,4.8766525 9,5.1917056 L 9,6 7,6 7,5.1967881 C 6.9944859,4.8842367 6.7527506,3.8515079 7.9410728,3.8193591 z"
     id="path2086"
     style="opacity:0.8;fill:#ffffff;fill-opacity:1;fill-rule:nonzero;stroke:none;stroke-width:1;marker:none;visibility:visible;display:block;overflow:visible" />
</svg>

<?xml version="1.0" encoding="UTF-8" standalone="no"?>
<!-- Created with Inkscape (http://www.inkscape.org/) -->
<svg id="svg7324" xmlns="http://www.w3.org/2000/svg" height="16" width="16" version="1.1" xmlns:xlink="http://www.w3.org/1999/xlink">
 <defs id="defs7326">
  <radialGradient id="radialGradient2926" gradientUnits="userSpaceOnUse" cy="4.8631" cx="12.244" gradientTransform="matrix(.53972 .0071397 -.0050252 .39911 -.67163 -.28602)" r="21">
   <stop id="stop6562" style="stop-color:#5a5a5a" offset="0"/>
   <stop id="stop6564" style="stop-color:#323232" offset="1"/>
  </radialGradient>
  <linearGradient id="linearGradient2928" y2="3" gradientUnits="userSpaceOnUse" x2="25" gradientTransform="matrix(.39024 0 0 0.4 1.1342 -1.9)" y1="29" x1="24.875">
   <stop id="stop6570" style="stop-color:#0a0a0a" offset="0"/>
   <stop id="stop6572" style="stop-color:#1e1e1e" offset="1"/>
  </linearGradient>
  <linearGradient id="linearGradient2931" y2="31.983" gradientUnits="userSpaceOnUse" x2="20.104" gradientTransform="matrix(.42622 0 0 .45209 .27049 -2.733)" y1="-.00049710" x1="20.147">
   <stop id="stop6546" style="stop-color:#f0f0f0" offset="0"/>
   <stop id="stop6548" style="stop-color:#d2d2d2" offset="1"/>
  </linearGradient>
  <linearGradient id="linearGradient3028" y2="96.245" gradientUnits="userSpaceOnUse" x2="321.58" gradientTransform="matrix(.41035 0 0 .51289 -121.96 -32.968)" y1="86.05" x1="321.58">
   <stop id="stop3271" style="stop-color:#787878" offset="0"/>
   <stop id="stop3273" style="stop-color:#bebebe" offset=".34447"/>
   <stop id="stop3275" style="stop-color:#c8c8c8" offset=".37315"/>
   <stop id="stop3277" style="stop-color:#e6e6e6" offset=".48991"/>
   <stop id="stop3279" style="stop-color:#8c8c8c" offset="1"/>
  </linearGradient>
  <linearGradient id="linearGradient3030" y2="40.186" gradientUnits="userSpaceOnUse" x2="22.452" gradientTransform="matrix(.41182 0 0 .51282 -.51999 -4.2433)" y1="30.05" x1="22.452">
   <stop id="stop3259" style="stop-color:#282828" offset="0"/>
   <stop id="stop3261" style="stop-color:#787878" offset=".34847"/>
   <stop id="stop3263" style="stop-color:#828282" offset=".36564"/>
   <stop id="stop3265" style="stop-color:#aaa" offset=".49353"/>
   <stop id="stop3267" style="stop-color:#464646" offset="1"/>
  </linearGradient>
 </defs>
 <path id="path4675" style="stroke-linejoin:round;stroke-width:.99827;stroke-dashoffset:0.5;stroke:url(#linearGradient3030);stroke-linecap:round;enable-background:new;fill:url(#linearGradient3028)" d="m7.4362 9.346l-1.5004 3.59c-0.00907 0.92422-1.1517 1.5389-1.1517 1.5389-0.30832 0.04535-0.26136 0.22875-0.26136 0.5129 0 0.28414 0.00729 0.51289 0.26136 0.51289l6.6187 0.000137c0.25408 0 0.162-0.22886 0.162-0.513s0.14632-0.46765-0.162-0.513c0 0-1.3939-0.61439-1.403-1.5386l0.5-3.5903h-3.0636z"/>
 <rect id="rect2722" style="stroke-linejoin:round;stroke-dashoffset:0.5;stroke:#969696;stroke-linecap:round;fill:url(#linearGradient2931)" rx=".5" ry=".5" height="12.019" width="14.927" y=".52202" x=".53172"/>
 <rect id="rect2716" style="fill-rule:evenodd;stroke:url(#linearGradient2928);enable-background:new;fill:url(#radialGradient2926)" height="7.9539" width="10.898" y="2.5303" x="2.4854"/>
 <path id="path2086" style="opacity:.8;display:block;fill:#fff" d="m7.8125 3.001c-1.2854 0.0386-1.8125 0.6301-1.8125 1.8502v1.1488h-0.6143c-0.2122 0-0.3857 0.2468-0.3857 0.422v3.2629c0 0.17522 0.17346 0.31513 0.38571 0.31513h5.2339c0.212 0 0.38-0.1399 0.38-0.3151v-3.2629c0-0.1752-0.168-0.422-0.38-0.422h-0.62l0.005-1.1285c0-1.2951-0.60001-1.8545-2-1.8705-0.065271-0.0007498-0.12964-0.0019-0.19286 0h-0.000042zm0.12857 0.81832c0.023636-0.0005094 0.050588 0.00117 0.075 0 1.2525-0.0601 0.961 1.0574 0.9839 1.3724v0.8083h-2v-0.8032c-0.0055-0.3126-0.2472-1.3453 0.9411-1.3774z"/>
</svg>
